Origami/16x16/apps/xnretro.svg

<svg width="16" height="16" version="1.1" viewBox="0 0 16 16" xmlns="http://www.w3.org/2000/svg">
 <path d="m10.178578 1.0714052c-3.2545422 0-6.4285836 3.1740421-6.4285836 6.4285829 0-0.8402887 1.1987009 1.9738434 1.8530302 1.5276252 0.7280142-0.4964666 0.9620605-4.2062013 1.8969766-4.2062013 0.1072671-1.319e-4 0.2144751 0.00509 0.321219 0.015697 0.00141 7.61e-5 0.00281 9.657e-4 0.00422 0.00107 3.102309 0.1697858 5.031754 2.1956765 5.031754 5.3403847 0 0.936546-0.224373 1.81903-0.613143 2.605334 0.02451-0.01343 0.04892-0.02703 0.07325-0.04081 0.08482 0.102557 0.165214 0.193651 0.244839 0.280412a7.5000133 7.5000133 0 0 0 2.437879 -5.5235109c-8.1e-5 -0.2101022-0.01283-0.418939-0.03035-0.626745a7.5000133 7.5000133 0 0 0 -0.0470822 -0.3871386c-0.016191-0.1181858-0.030572-0.2366886-0.052322-0.3536556a7.5000133 7.5000133 0 0 0 -0.079519 -0.3557486c-0.02877-0.1214939-0.0563-0.2433525-0.09103-0.3630725a7.5000133 7.5000133 0 0 0 -0.107768 -0.3264515c-0.043103-0.1265311-0.08415-0.2537249-0.133928-0.377721a7.5000133 7.5000133 0 0 0 -0.124512 -0.2772744c-0.059173-0.1316992-0.116367-0.2641968-0.183105-0.3923699a7.5000133 7.5000133 0 0 0 -0.141252 -0.2479775c-0.073999-0.1298147-0.146279-0.2606473-0.228097-0.3860917a7.5000133 7.5000133 0 0 0 -0.15381 -0.2144953c-0.091734-0.1303833-0.181176-0.2623743-0.281459-0.387138a7.5000133 7.5000133 0 0 0 -0.098357 -0.1119561c-0.12688-0.151599-0.256021-0.3015619-0.395506-0.4436392-0.828082-0.4215817-1.744124-1.1770749-2.673344-1.1771087z" style="fill:#ffc42e"/>
 <path d="m7.8222665 4.3024377c1.5619509 0.164604 2.3563115 1.5332969 2.3563115 3.1975504 1.31e-4 0.1072679-0.0051 0.2144752-0.01569 0.3212197-7.6e-5 0.0014-9.38e-4 0.00278-1e-3 0.00418-0.1697857 3.10231-2.1956772 5.031755-5.3403851 5.031755-0.9365473 0-1.8190308-0.224373-2.6053341-0.613143 0.013425 0.02451 0.027028 0.04892 0.040809 0.07325-0.154549 0.04088-0.2625079 0.08409-0.3839988 0.126605a7.5000133 7.5000133 0 0 0 4.0377439 2.381421c0.4056982 0.06481 0.8015696 0.124842 1.1153758 0.15067a7.5000133 7.5000133 0 0 0 0.4739053 0.0240542c0.2101016-8.1e-5 0.4189386-0.01283 0.6267443-0.03035a7.5000133 7.5000133 0 0 0 0.3871385 -0.04708c0.1181852-0.016189 0.2366882-0.03057 0.3536556-0.05232a7.5000133 7.5000133 0 0 0 0.3557482 -0.07952c0.1214936-0.02877 0.2433529-0.0563 0.3630728-0.09103a7.5000133 7.5000133 0 0 0 0.3264512 -0.10777c0.1265314-0.043107 0.2537254-0.084151 0.3777214-0.13393a7.5000133 7.5000133 0 0 0 0.277275 -0.124512c0.131699-0.05917 0.264196-0.116369 0.392369-0.183105a7.5000133 7.5000133 0 0 0 0.247979 -0.141254c0.129814-0.07401 0.260646-0.146279 0.38609-0.228098a7.5000133 7.5000133 0 0 0 0.214497 -0.153806c0.130382-0.09173 0.262374-0.181176 0.387137-0.28146a7.5000133 7.5000133 0 0 0 0.111956 -0.09836c0.1516-0.126883 0.301562-0.256024 0.443639-0.395509 0.421582-0.828084 0.641361-1.744126 0.641394-2.673346 0-3.1457658-2.466836-5.7078448-5.5706027-5.8761275z" style="fill:#ff8514"/>
 <path d="m2.8522521 1.6143568c-0.3565703 0.2815042-0.6850653 0.5934154-0.9823733 0.9311942-0.6957856 0.7904966-1.2207669 1.7226682-1.535069 2.7383337-4.6406e-4 0.00225-0.001594 0.00402-0.002063 0.00628-0.19420298 0.9459629-0.33216573 1.7884608-0.33273198 2.2098234 7.9687644e-5 0.2101022 0.012834398 0.4189389 0.030346928 0.626745 0.01233752 0.129432 0.02804068 0.2585217 0.04708134 0.3871379 0.01619065 0.1181857 0.03057193 0.2366886 0.05231259 0.3536556 0.023625 0.1192095 0.0501376 0.2378276 0.0795189 0.3557486 0.0287719 0.1214939 0.0562876 0.2433524 0.0910314 0.3630725 0.0334219 0.1096258 0.0693564 0.2184726 0.10777051 0.3264512 0.043097 0.1265321 0.0841502 0.2537251 0.13392868 0.3777211 0.0396282 0.09325 0.0811408 0.185701 0.12451241 0.277275 0.0591751 0.131699 0.11636928 0.264196 0.18310534 0.39237 0.0455063 0.08355 0.092597 0.166221 0.14125338 0.247978 0.073997 0.129814 0.14627843 0.260646 0.22809693 0.386091 0.050006 0.07239 0.1012859 0.143905 0.1538094 0.214496 0.091734 0.130382 0.1811759 0.262374 0.2814596 0.387138 0.032409 0.03765 0.065203 0.07497 0.098354 0.111955 0.1268834 0.1516 0.2560242 0.301563 0.3955085 0.443639 0.8280822 0.421583 1.7441244 0.641361 2.6733452 0.641394 3.1457644 0 5.7078449-2.466835 5.8761269-5.570602-0.164604 1.5619503-1.5332975 2.356311-3.1975505 2.356311-0.107268 1.31e-4 -0.214476-0.0051-0.32122-0.01569-0.00141-7.6e-5 -0.00281-9.38e-4 -0.00422-1e-3 -3.1023051-0.1698638-5.0317501-2.1957552-5.0317501-5.340463 0-0.9365468 0.077428-2.605334 0.077428-2.605334s0.9601996 0.1707866 0.6476712-0.3558362c-0.00319-0.09694-0.011503-0.1560107-0.015694-0.245885z" style="fill:#ff5757"/>
 <path d="m7.5000012 10.714279c-0.6253765 0 1.9025434-0.466809 1.4260404-0.7757804-0.8761047-0.5680806-4.5331892-1.288683-4.5331892-2.4385105-1.322e-4 -0.1072679-0.1020536-0.2144752-0.0914467-0.3212197 7.59e-5 -0.0014 9.375e-4 -0.00278 0.00103-0.00418 0.1698153-3.1022991 2.7313943-5.5674667 5.876103-5.5674667 0.936546 0 1.81903 0.2243731 2.605334 0.6131426-0.01343-0.024509-0.02703-0.048926-0.04081-0.073241-1.3997567-1.3736744-3.2819008-2.1444106-5.243099-2.1470485-1.9642451 7.5000136e-4 -3.8498132 0.77201066-5.2514748 2.1480927-0.4215814 0.8280819-0.64136 1.7441238-0.6413928 2.6733445 0 3.2545407 2.6383267 5.892867 5.8928676 5.892867z" style="fill:#baff41"/>
 <path d="M 11,7.5000013 A 3.5000002,3.5000002 0 0 1 7.5000001,11.000001 3.5000002,3.5000002 0 0 1 3.9999998,7.5000013 3.5000002,3.5000002 0 0 1 7.5000001,4.0000012 3.5000002,3.5000002 0 0 1 11,7.5000013 Z" style="fill:#555555"/>
</svg>

<svg xmlns="http://www.w3.org/2000/svg" width="16" height="16" version="1.1" viewBox="0 0 16 16">
 <path style="fill:#ffc42e" d="m 10.178578,1.0714052 c -3.2545422,0 -6.4285836,3.1740421 -6.4285836,6.4285829 0,-0.8402887 1.1987009,1.9738434 1.8530302,1.5276252 C 6.3310388,8.5311467 6.5650851,4.821412 7.5000012,4.821412 c 0.1072671,-1.319e-4 0.2144751,0.00509 0.321219,0.015697 0.00141,7.61e-5 0.00281,9.657e-4 0.00422,0.00107 3.102309,0.1697858 5.031754,2.1956765 5.031754,5.3403847 0,0.936546 -0.224373,1.81903 -0.613143,2.605334 0.02451,-0.01343 0.04892,-0.02703 0.07325,-0.04081 0.08482,0.102557 0.165214,0.193651 0.244839,0.280412 a 7.5000133,7.5000133 0 0 0 2.437879,-5.5235109 c -8.1e-5,-0.2101022 -0.01283,-0.418939 -0.03035,-0.626745 A 7.5000133,7.5000133 0 0 0 14.922587,6.4861052 C 14.906396,6.3679194 14.892015,6.2494166 14.870265,6.1324496 A 7.5000133,7.5000133 0 0 0 14.790746,5.776701 c -0.02877,-0.1214939 -0.0563,-0.2433525 -0.09103,-0.3630725 A 7.5000133,7.5000133 0 0 0 14.591948,5.087177 C 14.548845,4.9606459 14.507798,4.8334521 14.45802,4.709456 A 7.5000133,7.5000133 0 0 0 14.333508,4.4321816 C 14.274335,4.3004824 14.217141,4.1679848 14.150403,4.0398117 A 7.5000133,7.5000133 0 0 0 14.009151,3.7918342 C 13.935152,3.6620195 13.862872,3.5311869 13.781054,3.4057425 A 7.5000133,7.5000133 0 0 0 13.627244,3.1912472 C 13.53551,3.0608639 13.446068,2.9288729 13.345785,2.8041092 A 7.5000133,7.5000133 0 0 0 13.247428,2.6921531 C 13.120548,2.5405541 12.991407,2.3905912 12.851922,2.2485139 12.02384,1.8269322 11.107798,1.071439 10.178578,1.0714052 Z"/>
 <path style="fill:#ff8514" d="m 7.8222665,4.3024377 c 1.5619509,0.164604 2.3563115,1.5332969 2.3563115,3.1975504 1.31e-4,0.1072679 -0.0051,0.2144752 -0.01569,0.3212197 -7.6e-5,0.0014 -9.38e-4,0.00278 -0.001,0.00418 -0.1697857,3.10231 -2.1956772,5.031755 -5.3403851,5.031755 -0.9365473,0 -1.8190308,-0.224373 -2.6053341,-0.613143 0.013425,0.02451 0.027028,0.04892 0.040809,0.07325 -0.154549,0.04088 -0.2625079,0.08409 -0.3839988,0.126605 a 7.5000133,7.5000133 0 0 0 4.0377439,2.381421 c 0.4056982,0.06481 0.8015696,0.124842 1.1153758,0.15067 A 7.5000133,7.5000133 0 0 0 7.500004,15 c 0.2101016,-8.1e-5 0.4189386,-0.01283 0.6267443,-0.03035 a 7.5000133,7.5000133 0 0 0 0.3871385,-0.04708 C 8.632072,14.906381 8.750575,14.892 8.8675424,14.87025 a 7.5000133,7.5000133 0 0 0 0.3557482,-0.07952 c 0.1214936,-0.02877 0.2433529,-0.0563 0.3630728,-0.09103 a 7.5000133,7.5000133 0 0 0 0.3264512,-0.10777 C 10.039346,14.548823 10.16654,14.507779 10.290536,14.458 a 7.5000133,7.5000133 0 0 0 0.277275,-0.124512 c 0.131699,-0.05917 0.264196,-0.116369 0.392369,-0.183105 a 7.5000133,7.5000133 0 0 0 0.247979,-0.141254 c 0.129814,-0.07401 0.260646,-0.146279 0.38609,-0.228098 a 7.5000133,7.5000133 0 0 0 0.214497,-0.153806 c 0.130382,-0.09173 0.262374,-0.181176 0.387137,-0.28146 a 7.5000133,7.5000133 0 0 0 0.111956,-0.09836 c 0.1516,-0.126883 0.301562,-0.256024 0.443639,-0.395509 0.421582,-0.828084 0.641361,-1.744126 0.641394,-2.673346 0,-3.1457658 -2.466836,-5.7078448 -5.5706027,-5.8761275 z"/>
 <path style="fill:#ff5757" d="M 2.8522521,1.6143568 C 2.4956818,1.895861 2.1671868,2.2077722 1.8698788,2.545551 1.1740932,3.3360476 0.6491119,4.2682192 0.33480976,5.2838847 c -4.6406e-4,0.00225 -0.001594,0.00402 -0.002063,0.00628 C 0.13854378,6.2361276 5.8103322e-4,7.0786255 1.4782194e-5,7.4999881 9.4469838e-5,7.7100903 0.01284918,7.918927 0.03036171,8.1267331 0.04269923,8.2561651 0.05840239,8.3852548 0.07744305,8.513871 0.0936337,8.6320567 0.10801498,8.7505596 0.12975564,8.8675266 c 0.023625,0.1192095 0.0501376,0.2378276 0.0795189,0.3557486 0.0287719,0.1214939 0.0562876,0.2433524 0.0910314,0.3630725 0.0334219,0.1096258 0.0693564,0.2184726 0.10777051,0.3264512 0.043097,0.1265321 0.0841502,0.2537251 0.13392868,0.3777211 0.0396282,0.09325 0.0811408,0.185701 0.12451241,0.277275 0.0591751,0.131699 0.11636928,0.264196 0.18310534,0.39237 0.0455063,0.08355 0.092597,0.166221 0.14125338,0.247978 0.073997,0.129814 0.14627843,0.260646 0.22809693,0.386091 0.050006,0.07239 0.1012859,0.143905 0.1538094,0.214496 0.091734,0.130382 0.1811759,0.262374 0.2814596,0.387138 0.032409,0.03765 0.065203,0.07497 0.098354,0.111955 0.1268834,0.1516 0.2560242,0.301563 0.3955085,0.443639 0.8280822,0.421583 1.7441244,0.641361 2.6733452,0.641394 3.1457644,0 5.7078449,-2.466835 5.8761269,-5.570602 -0.164604,1.5619503 -1.5332975,2.356311 -3.1975505,2.356311 -0.107268,1.31e-4 -0.214476,-0.0051 -0.32122,-0.01569 -0.00141,-7.6e-5 -0.00281,-9.38e-4 -0.00422,-0.001 C 4.0722812,9.9920112 2.1428362,7.9661198 2.1428362,4.821412 c 0,-0.9365468 0.077428,-2.605334 0.077428,-2.605334 0,0 0.9601996,0.1707866 0.6476712,-0.3558362 -0.00319,-0.09694 -0.011503,-0.1560107 -0.015694,-0.245885 z"/>
 <path style="fill:#baff41" d="m 7.5000012,10.714279 c -0.6253765,0 1.9025434,-0.466809 1.4260404,-0.7757804 C 8.0499369,9.370418 4.3928524,8.6498156 4.3928524,7.4999881 4.3927202,7.3927202 4.2907988,7.2855129 4.3014057,7.1787684 c 7.59e-5,-0.0014 9.375e-4,-0.00278 0.00103,-0.00418 0.1698153,-3.1022991 2.7313943,-5.5674667 5.876103,-5.5674667 0.936546,0 1.81903,0.2243731 2.605334,0.6131426 -0.01343,-0.024509 -0.02703,-0.048926 -0.04081,-0.073241 C 11.343306,0.77334886 9.4611619,0.00261266 7.4999637,-2.5199668e-5 5.5357186,7.2480169e-4 3.6501505,0.77198546 2.2484889,2.1480675 1.8269075,2.9761494 1.6071289,3.8921913 1.6070961,4.821412 c 0,3.2545407 2.6383267,5.892867 5.8928676,5.892867 z"/>
 <path style="fill:#555555" d="M 11,7.5000013 A 3.5000002,3.5000002 0 0 1 7.5000001,11.000001 3.5000002,3.5000002 0 0 1 3.9999998,7.5000013 3.5000002,3.5000002 0 0 1 7.5000001,4.0000012 3.5000002,3.5000002 0 0 1 11,7.5000013 Z"/>
</svg>
